X: 150
Q: "With spirit."
M: 4/4
L: 1/4
K: G
c>B A A | B B c c | d> c B G | E E A> G |
c >B A G | e d c B | A G F E | D2 F2 | G3 z |]


